X:6706
T:Hampstead Heath,1st part. JNu.43
M:6/8
L:1/8
Q:100
S:James Nuttall MS,c1830,Rossendale,East Lancs.
R:Quadrille
O:England
A:East Lancashire
N:Wrongly numbered 42 in MS
Z:vmp.Manchester Morris Men
K:Bb
"primo"d/e/|fdBG2c/d/|ecAB2d/e/|fed gec|B3A2B/c/|!
dBG ecA|fdB gab|fdB BAc|g3g2::!
f|fgf bag|fdd fdd|fgf bag|f3 dgf|!
=ecc fcc|ffg agf|dgf =ed=e|g3 ff/g/f/e/|!
dBB BGG|GFF F2 d|dcc Bdf|g3 f2 g/a/|!
bdd def|gcc cde|fBB fed|c3 B2|]
